X:1
T:Title
%%score { ( 1 4 ) | ( 2 3 ) }
L:1/8
M:6/8
K:G
V:1 treble nm="Grand Piano"
V:4 treble 
V:2 treble 
V:3 treble 
V:1
 z3 z2[Q:1/4=90] G | B2 B BcB | A2 A A2 D | [CFA]2 [B,FA] [CFA][Ac][CFA] |[M:5/8] B- B3 z | %5
[M:1/8] G |[M:3/4] B2 BB d[DGB] | [CGc]2 [Ge] [Ge]2 [EGc] | z2 z c z2 |[M:5/8] G- G3 z | %10
[M:1/8] [DB] |[M:3/4] [^DB]2 [FA][FA] [EG][A,DF] | [G,E]2 B, B,2 B | [^DB]2 [FA][FA] G[EGA] | %14
[M:5/8] [^DFB]- [DFB]3 z |[M:1/8] [D=FB] |[M:3/4] [CEc]2 EE A[Ec] | [DB]2 [DB] [B,DG]2 [G,DG] | %18
[M:13/16] A-<ADDB3/2[CDA] |[M:5/8] [B,DG]- [B,DG]3 z |] %20
V:2
 z3 z2 [G,B,D] | z3 .D3 | [G,^CE]2 [G,=C^D] [F,C=D]2 [F,A,] | D,2 D, z A,D, | %4
[M:5/8] [G,B,D]- [G,B,D]3 z |[M:1/8][K:treble] [G,B,D] |[M:3/4] [G,DG]2 [G,DG]G B[K:bass]=F, | %7
 E,2 [C,C] [C,C]2 C, | D,2 D,D,- [D,A,][D,CD] |[M:5/8] [G,B,D]- [G,B,D]3 z |[M:1/8] [G,,G,] | %11
[M:3/4] z2 z F, z2 | E,2 B,, B,,2 B, | z2 z .[E,B,]3 |[M:5/8] B,,- B,,3 z |[M:1/8] G, | %16
[M:3/4] C,2 [C,G,C] [C,G,C]2 [C,G,] | G,2 G, G,,2 B,, | %18
[M:13/16] [D,F,C]-<[D,F,C][D,F,C][D,F,C]/-[D,F,C]-<[D,F,C]D, |[M:5/8] G,,- G,,3 z |] %20
V:3
 x6 | [G,DG]2 [G,^CG] [G,G]-[G,EG][G,DG] | x6 | z3 .D,3 |[M:5/8] x5 |[M:1/8][K:treble] x | %6
[M:3/4] z2 z .[G,D]3[K:bass] | x6 | z2 z F, z2 |[M:5/8] x5 |[M:1/8] x | %11
[M:3/4] [B,,F,]2 [B,,B,]B,,- [B,,G,]B,, | x6 | [B,,F,]2 .[^D,B,]2 EC, |[M:5/8] x5 |[M:1/8] x | %16
[M:3/4] x6 | x6 |[M:13/16] x13/2 |[M:5/8] x5 |] %20
V:4
 x6 | x6 | x6 | x6 |[M:5/8] x5 |[M:1/8] x |[M:3/4] x6 | x6 | [CGA]2 [A,GA]F- [FA]F |[M:5/8] x5 | %10
[M:1/8] x |[M:3/4] x6 | x6 | x6 |[M:5/8] x5 |[M:1/8] x |[M:3/4] x6 | x6 |[M:13/16] x13/2 | %19
[M:5/8] x5 |] %20

